src/components/00-materials/images-raw/Growth Euro.svg

<svg width="96" height="96" viewBox="0 0 96 96" fill="none" xmlns="http://www.w3.org/2000/svg">
<path d="M20 57V23M74 23V42.92V23Z" stroke="#00008F" stroke-width="2" stroke-linecap="round" stroke-linejoin="round"/>
<path d="M76.5 18H17.5C16.1193 18 15 19.1193 15 20.5C15 21.8807 16.1193 23 17.5 23H76.5C77.8807 23 79 21.8807 79 20.5C79 19.1193 77.8807 18 76.5 18Z" stroke="#00008F" stroke-width="2" stroke-linecap="round" stroke-linejoin="round"/>
<path d="M27 51L40 39L45.49 44L60 30M58 62H17.5C16.837 62 16.2011 61.7366 15.7322 61.2678C15.2634 60.7989 15 60.163 15 59.5C15 58.837 15.2634 58.2011 15.7322 57.7322C16.2011 57.2634 16.837 57 17.5 57H56.15L58 62ZM47 18V14V18ZM47 82V62V82ZM25 82L46 62L25 82ZM69 82L48 62L69 82Z" stroke="#00008F" stroke-width="2" stroke-linecap="round" stroke-linejoin="round"/>
<path d="M53 30H60V37" stroke="#00008F" stroke-width="2" stroke-linecap="round" stroke-linejoin="round"/>
<path d="M69 68C76.1797 68 82 62.1797 82 55C82 47.8203 76.1797 42 69 42C61.8203 42 56 47.8203 56 55C56 62.1797 61.8203 68 69 68Z" stroke="#00008F" stroke-width="2" stroke-linecap="round" stroke-linejoin="round"/>
<path d="M73 49.56C72.5581 49.0803 72.0239 48.6948 71.4293 48.4267C70.8347 48.1586 70.1921 48.0135 69.54 48C66.48 48 64 51.13 64 55C64 58.87 66.48 62 69.54 62C70.1921 61.9865 70.8347 61.8414 71.4293 61.5733C72.0239 61.3052 72.5581 60.9197 73 60.44M62 53H69H62ZM62 57H69H62Z" stroke="#00008F" stroke-width="2" stroke-linecap="round" stroke-linejoin="round"/>
</svg>

<svg width="96" height="96" viewBox="0 0 96 96" fill="none" xmlns="http://www.w3.org/2000/svg"><path d="M20 57V23m54 0v19.92V23zM76.5 18h-59a2.5 2.5 0 000 5h59a2.5 2.5 0 000-5zM27 51l13-12 5.49 5L60 30m-2 32H17.5a2.5 2.5 0 010-5h38.65L58 62zM47 18v-4 4zm0 64V62v20zm-22 0l21-20-21 20zm44 0L48 62l21 20z" stroke="#00008F" stroke-width="2" stroke-linecap="round" stroke-linejoin="round"/><path d="M53 30h7v7M69 68c7.18 0 13-5.82 13-13s-5.82-13-13-13-13 5.82-13 13 5.82 13 13 13z" stroke="#00008F" stroke-width="2" stroke-linecap="round" stroke-linejoin="round"/><path d="M73 49.56A4.841 4.841 0 0069.54 48C66.48 48 64 51.13 64 55s2.48 7 5.54 7A4.84 4.84 0 0073 60.44M62 53h7-7zm0 4h7-7z" stroke="#00008F" stroke-width="2" stroke-linecap="round" stroke-linejoin="round"/></svg>
